!!!ONB: MCCC : IJB0066_07 : Extracted Monophonic Melody
!!!COM: Bach, Johann Sebastian
!!!OPR: Cello Suite No.4
!!!OMV: 7
!!!SCT: BWV 1010
!!!ODT: 1717///
**kern
*thru
*cello
*>A
*clefF4
*k[b-e-a-]
*E-:
*M12/8
*MM144
8E-
=1
8E-
8D
8E-
8BB-
8C
8D
8E-
8D
8E-
8G
8F
8G
=2
8E-
8D
8E-
8BB-
8C
8D
4.EE-[
4EE-]
8G
=3
8F
8E-
8F
8B-
8G
8A-
8G
8F
8G
8E-
8F
8G
=4
8F
8E-
8F
8B-
8G
8A-
8G
8F
8G
8E-
8G
8F
=5
8E-
8D
8E-
8c
8A
8B-
8A
8G
8A
8F
8A
8F
=6
8E-
8D
8E-
8c
8A
8B-
8A
8G
8A
8F
8A
8E-
=7
8D
8C
8D
8d
8A
8B-
8E-
8D
8E-
8d
8A
8B-
=8
8F
8E-
8F
8d
8A
8B-
8G
8F
8G
8d
8A
8B-
=9
8E-
8D
8E-
8C
8E-
8BB-
8AA
8E-
8GG
8AA
8E-
8FF
=10
8BB-
8D
8F
8B-
8D
8F
4.BB-[
4BB-]
*>A
*clefF4
*k[b-e-a-]
*E-:
*M12/8
*MM144
8E-
=1
8E-
8D
8E-
8BB-
8C
8D
8E-
8D
8E-
8G
8F
8G
=2
8E-
8D
8E-
8BB-
8C
8D
4.EE-[
4EE-]
8G
=3
8F
8E-
8F
8B-
8G
8A-
8G
8F
8G
8E-
8F
8G
=4
8F
8E-
8F
8B-
8G
8A-
8G
8F
8G
8E-
8G
8F
=5
8E-
8D
8E-
8c
8A
8B-
8A
8G
8A
8F
8A
8F
=6
8E-
8D
8E-
8c
8A
8B-
8A
8G
8A
8F
8A
8E-
=7
8D
8C
8D
8d
8A
8B-
8E-
8D
8E-
8d
8A
8B-
=8
8F
8E-
8F
8d
8A
8B-
8G
8F
8G
8d
8A
8B-
=9
8E-
8D
8E-
8C
8E-
8BB-
8AA
8E-
8GG
8AA
8E-
8FF
=10
8BB-
8D
8F
8B-
8D
8F
4.BB-[
4BB-]
*>B
8B-
=11
8B-
8A
8B-
8F
8G
8A
8B-
8A
8B-
8d
8c
8d
=12
8B-
8A
8B-
8F
8G
8A
4.BB-[
4BB-]
8d
=13
8d
8c
8d
8A-
8G
8A-
8F
8E-
8F
8BB
8F
8d
=14
8d
8c
8d
8A-
8G
8A-
8F
8E-
8F
8BB
8D
8F
=15
8E-
8D
8E-
8C
8E-
8BB-
8AA-
8C
8F
8A-
8c
8E-
=16
8D
8C
8D
8BB-
8D
8AA-
8GG
8BB-
8E-
8G
8B-
8D
=17
8C
8BB-
8C
8AA-
8C
8GG
8FF
8AA-
8D
8F
8A-
8C
=18
8BB
8D
8G
8B
8d
8F
8E-
8G
8c
8G
8c
8B
=19
8c
8B
8c
8G
8A
8B
8c
8B
8c
8e-
8d
8e-
=20
8c
8B
8c
8E-
8F
8G
8C
8E-
8F#
8A
8c
8A
=21
8F#
8A
8c
8e-
8d
8c
8B-
8A
8G
8D
8G
8F#
=22
8G
8F#
8G
8B-
8F#
8G
8C
8BB-
8C
8B-
8F#
8G
=23
8D
8C
8D
8B-
8F#
8G
8E-
8D
8E-
8B-
8F#
8G
=24
8A
8c
8G
8F#
8c
8E
8D
8c
8E
8F#
8c
8G
=25
8A
8c
8G
8F#
8c
8E
8D
8c
8E
8F#
8c
8D
=26
8B-
8A
8G
8D
8G
8F#
8G
8D
8BB-
4GG
8E-
=27
8E-
8D
8E-
8BB-
8C
8D
8E-
8D
8E-
8G
8F
8G
=28
8E-
8D
8E-
8BB-
8C
8D
4.EE-[
4EE-]
8G
=29
8F
8E-
8F
8B-
8G
8A-
8G
8F
8G
8E-
8F
8G
=30
8F
8E-
8F
8B-
8G
8A-
8G
8F
8G
8E-
8G
8A-
=31
8B-
8A-
8B-
8e-
8c
8d-
8c
8B-
8c
8A-
8B-
8c
=32
8B-
8A-
8B-
8e-
8c
8d-
8c
8B-
8c
8A-
8B-
8c
=33
8G-
8F
8G-
8E-
8D
8E-
8C
8BB-
8C
8AA
8C
8E-
=34
8D-
8C
8D-
8BB-
8D-
8AA-
8GG
8BB-
8E-
8G
8B-
8E-
=35
8C
8BB-
8C
8AA-
8C
8GG
8FF
8AA-
8D-
8F
8A-
8C
=36
8BB-
8AA-
8BB-
8GG
8BB-
8FF
8EE
8GG
8C
8E
8G
8BB-
=37
8AA-
8GG
8AA-
8FF
8AA-
8EE-
8DD
8FF
8BB-
8D
8F
8AA-
=38
8GG
8FF
8GG
8G
8D
8E-
8AA-
8GG
8AA-
8G
8D
8E-
=39
8BB-
8AA-
8BB-
8G
8D
8E-
8C
8BB-
8C
8G
8D
8E-
=40
8A-
8G
8A-
8F
8A-
8E-
8D
8A-
8C
8D
8A-
8BB-
=41
8E-
8G
8B-
8e-
8GG
8BB-
4.EE-[
4EE-]
*>B
8B-
=11
8B-
8A
8B-
8F
8G
8A
8B-
8A
8B-
8d
8c
8d
=12
8B-
8A
8B-
8F
8G
8A
4.BB-[
4BB-]
8d
=13
8d
8c
8d
8A-
8G
8A-
8F
8E-
8F
8BB
8F
8d
=14
8d
8c
8d
8A-
8G
8A-
8F
8E-
8F
8BB
8D
8F
=15
8E-
8D
8E-
8C
8E-
8BB-
8AA-
8C
8F
8A-
8c
8E-
=16
8D
8C
8D
8BB-
8D
8AA-
8GG
8BB-
8E-
8G
8B-
8D
=17
8C
8BB-
8C
8AA-
8C
8GG
8FF
8AA-
8D
8F
8A-
8C
=18
8BB
8D
8G
8B
8d
8F
8E-
8G
8c
8G
8c
8B
=19
8c
8B
8c
8G
8A
8B
8c
8B
8c
8e-
8d
8e-
=20
8c
8B
8c
8E-
8F
8G
8C
8E-
8F#
8A
8c
8A
=21
8F#
8A
8c
8e-
8d
8c
8B-
8A
8G
8D
8G
8F#
=22
8G
8F#
8G
8B-
8F#
8G
8C
8BB-
8C
8B-
8F#
8G
=23
8D
8C
8D
8B-
8F#
8G
8E-
8D
8E-
8B-
8F#
8G
=24
8A
8c
8G
8F#
8c
8E
8D
8c
8E
8F#
8c
8G
=25
8A
8c
8G
8F#
8c
8E
8D
8c
8E
8F#
8c
8D
=26
8B-
8A
8G
8D
8G
8F#
8G
8D
8BB-
4GG
8E-
=27
8E-
8D
8E-
8BB-
8C
8D
8E-
8D
8E-
8G
8F
8G
=28
8E-
8D
8E-
8BB-
8C
8D
4.EE-[
4EE-]
8G
=29
8F
8E-
8F
8B-
8G
8A-
8G
8F
8G
8E-
8F
8G
=30
8F
8E-
8F
8B-
8G
8A-
8G
8F
8G
8E-
8G
8A-
=31
8B-
8A-
8B-
8e-
8c
8d-
8c
8B-
8c
8A-
8B-
8c
=32
8B-
8A-
8B-
8e-
8c
8d-
8c
8B-
8c
8A-
8B-
8c
=33
8G-
8F
8G-
8E-
8D
8E-
8C
8BB-
8C
8AA
8C
8E-
=34
8D-
8C
8D-
8BB-
8D-
8AA-
8GG
8BB-
8E-
8G
8B-
8E-
=35
8C
8BB-
8C
8AA-
8C
8GG
8FF
8AA-
8D-
8F
8A-
8C
=36
8BB-
8AA-
8BB-
8GG
8BB-
8FF
8EE
8GG
8C
8E
8G
8BB-
=37
8AA-
8GG
8AA-
8FF
8AA-
8EE-
8DD
8FF
8BB-
8D
8F
8AA-
=38
8GG
8FF
8GG
8G
8D
8E-
8AA-
8GG
8AA-
8G
8D
8E-
=39
8BB-
8AA-
8BB-
8G
8D
8E-
8C
8BB-
8C
8G
8D
8E-
=40
8A-
8G
8A-
8F
8A-
8E-
8D
8A-
8C
8D
8A-
8BB-
=41
8E-
8G
8B-
8e-
8GG
8BB-
4.EE-[
4EE-]
==
*-
